src/lib/packages/icons/src/assets/filled/croissant.svg

<svg width="24" height="24" viewBox="0 0 24 24" fill="none" xmlns="http://www.w3.org/2000/svg">
<path d="M21 10.5C21 10.89 20.98 11.27 20.93 11.65C20.9 11.62 20.8799 11.61 20.8499 11.59L16.34 8.75996C16.1 8.60996 15.85 8.48997 15.59 8.40997C15.86 7.48997 16 6.50997 16 5.49997C16 5.15997 15.98 4.82997 15.95 4.49997C15.83 3.20997 17.39 2.47997 18.27 3.43997C19.96 5.29997 21 7.77997 21 10.5ZM8.75998 16.34C8.60998 16.1 8.48994 15.85 8.40994 15.59C7.48994 15.86 6.50997 16 5.49997 16C5.15997 16 4.82997 15.98 4.49997 15.95C3.20997 15.83 2.47997 17.39 3.43997 18.27C5.29997 19.96 7.77997 21 10.5 21C10.89 21 11.27 20.98 11.65 20.93C11.62 20.91 11.61 20.88 11.59 20.85L8.75998 16.34ZM20.5999 13.36C20.4599 13.16 20.28 12.99 20.06 12.86L15.5399 10.03C15.3899 9.93996 15.23 9.86997 15.06 9.81997C14.87 9.75997 14.6799 9.72996 14.4799 9.72996C13.9599 9.72996 13.45 9.92997 13.07 10.32L10.32 13.07C9.78997 13.6 9.60996 14.37 9.80996 15.06C9.85996 15.23 9.93999 15.39 10.03 15.54L12.86 20.06C12.99 20.28 13.1599 20.46 13.3499 20.6C13.6999 20.87 14.13 21 14.55 21C15.05 21 15.56 20.81 15.96 20.41L20.4 15.97C21.13 15.24 21.16 14.13 20.59 13.36H20.5999Z" fill="currentColor"/>
</svg>

<svg xmlns="http://www.w3.org/2000/svg" width="24" height="24" fill="none"><path fill="currentColor" d="M21 10.5c0 .39-.02.77-.07 1.15-.03-.03-.05-.04-.08-.06l-4.51-2.83a3.19 3.19 0 0 0-.75-.35 10.335 10.335 0 0 0 .36-3.91c-.12-1.29 1.44-2.02 2.32-1.06C19.96 5.3 21 7.78 21 10.5ZM8.76 16.34a3.19 3.19 0 0 1-.35-.75 10.335 10.335 0 0 1-3.91.36c-1.29-.12-2.02 1.44-1.06 2.32C5.3 19.96 7.78 21 10.5 21c.39 0 .77-.02 1.15-.07-.03-.02-.04-.05-.06-.08l-2.83-4.51Zm11.84-2.98c-.14-.2-.32-.37-.54-.5l-4.52-2.83c-.15-.09-.31-.16-.48-.21a1.959 1.959 0 0 0-1.99.5l-2.75 2.75c-.53.53-.71 1.3-.51 1.99.05.17.13.33.22.48l2.83 4.52c.13.22.3.4.49.54.35.27.78.4 1.2.4.5 0 1.01-.19 1.41-.59l4.44-4.44a2 2 0 0 0 .19-2.61h.01Z"/></svg>
